X:1
T:Vineyard, 87.87.47
T:Vineyard, 87.87.47
T:Alfred Bailey Goodrich, 1871
T:Public Domain Courtesy of the Cyber Hymnal™
C:Alfred Bailey Goodrich, 1871
Z:Public Domain
Z:Courtesy of the Cyber Hymnal™
%%score 1 2
L:1/8
Q:1/4=95
M:3/4
K:C
V:1 treble 
V:2 bass 
V:1
 [CE][DF] | [EG]3 [Ec] [Ge][Ec] | [Ec]2 [DB]2 [B,D][CE] | [DF]3 [DB] [Fd][DF] | %4
 [DF]2 [CE]2 [EG][Ec] | [GB]2 [FA]2 [Ac][FA] | [^D^F]2 [EG]2 [Ec][=F=d] | [Ge]3 [Ec] [Fd][DB] | %8
 [Ec]2 z2 [Ec][GB] | [FA]2 [FA]2 [Ac][FA] | [EG]2 [CE]2 [Ec][Fd] | [Ge]3 [Ec] [Fd][DB] | [Ec]4 |] %13
V:2
 C,C, | C,3 C, C,C, | G,2 G,2 G,G, | G,3 G, G,,B,, | C,4 C,C, | F,2 F,2 F,A, | C2 C,2 C,C, | %7
 C,3 C, G,G, | C,2 z2 C,E, | F,2 F,2 F,A, | C2 C2 CG, | C,3 C, G,G, | C,4 |] %13

